flaticon/romance-lifestyle/love.svg

<svg xmlns="http://www.w3.org/2000/svg" width="32" height="32" viewBox="0 0 24 24">
    <path d="M 22.347656 3.40625 C 20.828125 1.6875 18.992188 0.804688 17.113281 0.804688 C 14.992188 0.804688 13.113281 2.085938 11.996094 4.203125 C 10.914062 2.085938 8.996094 0.804688 6.917969 0.804688 C 5 0.804688 3.238281 1.6875 1.679688 3.40625 C -0.15625 5.445312 -1.199219 10.042969 2.398438 13.480469 C 4.078125 15.039062 11.636719 22.992188 11.714844 23.074219 C 11.796875 23.152344 11.875 23.195312 11.996094 23.195312 C 12.113281 23.195312 12.234375 23.152344 12.316406 23.035156 C 12.394531 22.953125 19.992188 15.039062 21.628906 13.4375 C 25.1875 10 24.148438 5.402344 22.347656 3.40625 Z M 21.03125 12.917969 C 19.550781 14.320312 13.394531 20.753906 11.996094 22.234375 C 10.597656 20.714844 4.480469 14.320312 2.960938 12.878906 C -0.277344 9.800781 0.640625 5.761719 2.28125 3.964844 C 3.679688 2.445312 5.277344 1.644531 6.917969 1.644531 C 8.917969 1.644531 10.714844 3.046875 11.636719 5.363281 C 11.675781 5.484375 11.835938 5.605469 11.996094 5.605469 C 12.15625 5.605469 12.316406 5.484375 12.355469 5.363281 C 13.273438 3.085938 15.074219 1.644531 17.113281 1.644531 C 18.792969 1.644531 20.351562 2.40625 21.710938 4.003906 C 23.308594 5.761719 24.226562 9.839844 21.03125 12.917969 Z M 21.03125 12.917969"/>
</svg>

<svg xmlns="http://www.w3.org/2000/svg" width="32" height="32" viewBox="0 0 24 24">
    <path d="M22.348 3.406C20.828 1.687 18.992.805 17.113.805c-2.12 0-4 1.28-5.117 3.398-1.082-2.117-3-3.398-5.078-3.398-1.918 0-3.68.882-5.238 2.601-1.836 2.04-2.88 6.637.718 10.074 1.68 1.56 9.239 9.512 9.317 9.594.082.078.16.121.281.121a.377.377 0 0 0 .32-.16c.079-.082 7.676-7.996 9.313-9.598 3.558-3.437 2.52-8.035.719-10.03zm-1.317 9.512c-1.48 1.402-7.636 7.836-9.035 9.316-1.398-1.52-7.516-7.914-9.035-9.355C-.277 9.8.64 5.762 2.28 3.965c1.399-1.52 2.996-2.32 4.637-2.32 2 0 3.797 1.402 4.719 3.718.039.121.199.242.36.242.16 0 .32-.12.358-.242.918-2.277 2.72-3.718 4.758-3.718 1.68 0 3.239.761 4.598 2.359 1.598 1.758 2.516 5.836-.68 8.914zm0 0"/>
</svg>
